!!!!SEGMENT: pl-kk--kk-i-273--003_anonim--ecce-virgo-concipiet.krn
!!!cenid: 17xx:2075
!!!COM: Anonim
!!!COM-rismID: pe30004985
!!!CDT:
!!!CNT:
!!!OTL: Ecce virgo concipiet
!!!PDT:
!!!AGN: Sacred
!!!SMS-siglum: PL-Kk
!!!SMS-shelfmark: Kk.I.273
!!!SMS-shelfwork: 003 W
!!!SMS-variant:
!!!SMS-altvar:
!!!NIFC-rismSourceID: 1001147450
!!!NIFC-rismChildID: 1001147459
!!!NIFC-islandoraID: pl-kk:4863
!!!URL-pdf-islandora: https://repozytorium.nifc.pl/islandora/object/pl-kk%3A4863/datastream/PDF/view
!!!URL-scan: https://polish.musicsources.pl/pl/lokalizacje/galeria/rekopisy/5891 @EN{Scan on Polish Music Sources Website} @PL{Skany w portalu Dziedzictwo Muzyki Polskiej w otwartym dostępie}
!!!ONB-nifc: UWAGA: utwory w zbiorze: 1. Rorate caeli desuper, 2. Tollite portas, 3. Ecce virgo concipiet, 4. Alleluia post partum Virgo
!!!AIN: 1 alto 2 empty 1 tenor 1 vox
!!!key:
**kern	**text	**kern	**text	**kern	**text	**kern	**text	**kern	**text
*part5	*part5	*part4	*part4	*part3	*part3	*part2	*part2	*part1	*part1
*staff5	*staff5	*staff4	*staff4	*staff3	*staff3	*staff2	*staff2	*staff1	*staff1
*Iempty	*	*Iempty	*	*Itenor	*	*Ialto	*	*Ivox	*
*I"Baſso Ripieno.	*	*I"Baſso	*	*I"Tenore	*	*I"Alto.	*	*I"Canto	*
*I'B rip	*	*I'B.	*	*I'T.	*	*I'A.	*	*I'C.	*
*clefF4	*	*clefF4	*	*clefC4	*	*clefC3	*	*clefC1	*
*k[]	*	*k[]	*	*k[]	*	*k[]	*	*k[]	*
*C:	*	*C:	*	*C:	*	*C:	*	*C:	*
*M3/2	*	*M3/2	*	*M3/2	*	*M3/2	*	*M3/2	*
=1	=1	=1	=1	=1	=1	=1	=1	=1	=1
1C/	Ec-	1C/	Ec-	1c\	Ec-	1e\	Ec-	1g\	Ec-
*	*	*	*	*2\right	*	*2\right	*	*	*
2C/	-ce	2C/	-ce	2c\	-ce	2e\	-ce	2g/	-ce
=2	=2	=2	=2	=2	=2	=2	=2	=2	=2
*2\right	*	*2\right	*	*	*	*	*	*2\right	*
2F\	Vir-	2F\	Vir-	2c\	Vir-	2f\	Vir-	2a\	Vir-
2F\	-go	2F\	-go	2c\	-go	2f\	-go	2a\	-go
2D\	con-	2D\	con-	2d\	con-	2f\	con-	2a\	con-
=3	=3	=3	=3	=3	=3	=3	=3	=3	=3
2.G\	-ci-	2.G\	-ci-	2.B\	-ci-	2.d\	-ci-	2.b\	-ci-
4G\	-pi-	4G\	-pi-	4B\	-pi-	4d\	-pi-	4b\	-pi-
4E\	-et	4E\	-et	4e\	-et	4g\	-et	4b\	-et
4E\	et	4E\	et	4e\	et	4g\	et	4b\	et
=4	=4	=4	=4	=4	=4	=4	=4	=4	=4
2.A\	pa-	2.A\	pa-	2.c\	pa-	2.e\	pa-	2.cc\	pa-
4A\	-ri-	4A\	-ri-	4c\	-ri-	4e\	-ri-	4cc\	-ri-
2F\	-et	2F\	-et	[<2c\	-et	[<2f\	-et	2a\	-et
!LO:LB:g=original	!	!	!	!	!	!	!	!	!
=5	=5	=5	=5	=5	=5	=5	=5	=5	=5
2F\	Fi-	2F\	.	2c\]	.	2f\]	.	2a\	Fi-
2G\	.	2G\	Fi-	2c\	Fi-	2.d\	Fi-	2.g/	.
2GG/	-li-	2GG/	-li-	2B\	-li-	.	.	.	.
.	.	.	.	.	.	4d\	-li-	4g/	-li-
!	!	!	!	!LO:LB:g=original	!	!	!	!	!
=6	=6	=6	=6	=6-	=6	=6	=6	=6	=6
1.C/	-um	1.C/	-um	1.c\	-um.	1.e\	-um	1.g\	-um
!	!	!LO:LB:g=original	!	!	!	!	!	!	!
=7	=7	=7	=7	=7	=7	=7	=7	=7	=7
2r	.	2r	.	00.r	.	2r	.	2r	.
2A\	et	2A\	et	.	.	2e\	et	2a\	et
2B\	vo-	2B\	vo-	.	.	2d\	vo-	2g#X\	Vo-
=8	=8	=8	=8	=8	=8	=8	=8	=8	=8
2.c\	-ca-	2.c\	-ca-	.	.	2.e\	-ca-	2.a\	-ca-
4B\	-bi-	4B\	-bi-	.	.	4d\	-bi-	4g#X\	-bi-
*	*	*	*	*	*	*	*	*custos:b	*
2A\	-tur	2A\	-tur	.	.	2c/	-tur	2a\	-tur
!	!	!	!	!	!	!	!	!LO:LB:g=original	!
=9	=9	=9	=9	=9	=9	=9	=9	=9	=9
1G#X\	No-	1G#X\	No-	.	.	1e\	no-	1b\	No-
2A\	-men	2A\	-men	.	.	2e\	-men	2cc\	-men
!	!	!	!	!	!	!LO:LB:g=original	!	!	!
=10	=10	=10	=10	=10	=10	=10	=10	=10	=10
2F\	e-	2F\	e-	.	.	2f\	e-	2a\	e-
2F\	-jus	2F\	-jus	.	.	2c/	-jus	2a\	-jus
2D\	.	2D\	Em-	.	.	(4d\	Em-	(4b\	Em-
.	.	.	.	.	.	4c\)	.	4a\)	.
=11	=11	=11	=11	=11	=11	=11	=11	=11	=11
2.E\	Ema-	2.E\	-ma-	1B\	et	2.B/	-ma-	2.g#X/	-ma-
4E\	-nu-	4E\	-nu-	.	.	4B/	-nu-	4g#/	-nu-
2E\	-el	2E\	-el.	2B\	vo-	2B/	-el.	2g#/	-el
=12	=12	=12	=12	=12	=12	=12	=12	=12	=12
0.r	.	0.r	.	4c\	-ca-	1e\	et	0.r	.
.	.	.	.	4B\	.	.	.	.	.
.	.	.	.	4c\	.	.	.	.	.
.	.	.	.	4d\	.	.	.	.	.
.	.	.	.	4c\	.	2e\	vo-	.	.
.	.	.	.	4B\	.	.	.	.	.
=13	=13	=13	=13	=13	=13	=13	=13	=13	=13
.	.	.	.	2.A\	.	4f\	-ca-	.	.
.	.	.	.	.	.	4e\	.	.	.
.	.	.	.	.	.	4f\	.	.	.
.	.	.	.	4A\	-bi-	4g\	.	.	.
.	.	.	.	2d\	-tur	4f\	.	.	.
.	.	.	.	.	.	4e\	.	.	.
=14	=14	=14	=14	=14	=14	=14	=14	=14	=14
1.r	.	1.r	.	2B\	No-	2.d\	.	1b\	et
.	.	.	.	2G/	-men	.	.	.	.
.	.	.	.	.	.	4d\	-bi-	.	.
.	.	.	.	2r	.	2d\	-tur	2b\	vo-
!LO:LB:g=original	!	!	!	!	!	!	!	!	!
=15	=15	=15	=15	=15	=15	=15	=15	=15	=15
1E\	et	1E\	et	1G/	et	1g\	et	4cc\	-ca-
.	.	.	.	.	.	.	.	4b\	.
.	.	.	.	.	.	.	.	4cc\	.
.	.	.	.	.	.	.	.	4dd\	.
2E\	vo-	2E\	vo-	2G/	vo-	2c/	vo-	4cc\	.
.	.	.	.	.	.	.	.	4b\	.
=16	=16	=16	=16	=16	=16	=16	=16	=16	=16
4F\	-ca-	4F\	-ca-	(4A\	-ca-	1.c\	-ca-	2.a\	.
4E\	.	4E\	.	4G\	.	.	.	.	.
4F\	.	4F\	.	4A\	.	.	.	.	.
4G\	.	4G\	.	4B\	.	.	.	4a\	-bi-
4A\	.	4A\	.	4c\)	.	.	.	4a\	-tur
4F\	.	4F\	.	4A\	.	.	.	4a\	Vo-
=17	=17	=17	=17	=17	=17	=17	=17	=17	=17
2.D/	.	2.D/	.	2.d\	.	2.f\	.	2.a\	-ca-
4D/	-bi-	4D/	-bi-	4d\	-bi-	4f\	-bi-	4a\	-bi-
2G\	-tur	2G\	-tur	2d\	-tur	2d\	-tur	2b\	-tur
!	!	!LO:LB:g=original	!	!	!	!	!	!	!
=18	=18	=18	=18	=18	=18	=18	=18	=18	=18
1E\	No-	1E\	No-	1c\	No-	1e\	No-	4cc\	No-
.	.	.	.	.	.	.	.	4b\	.
.	.	.	.	.	.	.	.	4cc\	.
.	.	.	.	.	.	.	.	4dd\	.
2C/	-men	2C/	-men	2c\	-men	2e,\	-men	4ee\	.
.	.	.	.	.	.	.	.	4cc\	.
!	!	!	!	!LO:LB:g=original	!	!	!	!LO:LB:g=original	!
=19	=19	=19	=19	=19	=19	=19	=19	=19	=19
*	*ij	*	*ij	*	*	*	*ij	*	*
1G\	No-	1G\	No-	4B\	No-	1g\	No-	4dd\	.
.	.	.	.	4A\	.	.	.	4cc\	.
.	.	.	.	4B\	.	.	.	4dd\	.
.	.	.	.	4c\	.	.	.	(4ee\	-men
2G\	-men	2G\	-men	(4d\	-men	2g,\	-men	4ff\	.
*	*Xij	*	*Xij	*	*	*	*Xij	*	*
.	.	.	.	4B\)	.	.	.	4dd\)	.
!	!	!	!	!	!	!LO:LB:g=original	!	!	!
=20	=20	=20	=20	=20	=20	=20	=20	=20	=20
2c\	e-	2c\	e-	2c\	e-	2e\	e-	2ee\	e-
2C,/	-jus	2c\	-jus	2c,\	-jus	2e\	-jus	2g,/	-jus
2F\	Em-	2F\	Em-	2c\	Em-	2f\	Em-	2a\	Em-
=21	=21	=21	=21	=21	=21	=21	=21	=21	=21
2F\	-ma-	2F\	-ma-	1c\	-ma-	1d\	-ma-	2a\	-ma-
2G\	.	2G\	.	.	.	.	.	2.g/	.
*custos:c	*	*	*	*	*	*	*	*	*
2GG/	-nu-	2GG/	-nu-	2B\	-nu-	2d\	-nu-	.	.
.	.	.	.	.	.	.	.	4g/	-nu-
!LO:LB:g=original	!	!	!	!	!	!	!	!	!
=22	=22	=22	=22	=22	=22	=22	=22	=22	=22
1C/,	-el	1C/,	-el	1c\,	-el	1e\,	-el	1g\,	-el
2E\	Em-	2E\	Em-	2c\	Em-	2g\	Em-	2g/	Em-
=23	=23	=23	=23	=23	=23	=23	=23	=23	=23
1F\	-ma-	1F\	-ma-	1c\	-ma-	1f\	-ma-	1a\	-ma-
2F\	-nu-	2F\	-nu-	2c\	-nu-	2f\	-nu-	2a\	-nu-
=24	=24	=24	=24	=24	=24	=24	=24	=24	=24
00C/;	-el.	00C/;	-el	00c\;	-el.	00e\;	-el.	00g\;	-el.
!LO:TX:a:t=Pro Graduali post Nativitatem	!	!	!	!	!	!	!	!	!
==	==	==	==	==	==	==	==	==	==
*-	*-	*-	*-	*-	*-	*-	*-	*-	*-
!!!system-decoration: [(s1,s2,s3,s4,s5)]
!!!EED: Leszek Kubiak
!!!EEV: 2021-04-01
!!!ENC: Berenika Jozajtis
!!!END: 2021-03-10
!!!YEC: Copyright 2022 Narodowy Instytut Fryderyka Chopina (https://polishscores.org)
!!!YEM: License CC-BY-4.0 (https://creativecommons.org/licenses/by/4.0)
